X:43
T:GB/7a/43 You Seamen Bold that Plough the Ocean
%%VWML:GB-7a-43-0
F:http://www.vwml.org/record/GB/7a/43
T:Version 1 of 4
C:Mr H. Akhurst (c. 70), Lower Beeding, Sussex VI. 07
C:Transcribed by Simon Furey and Lewis Jones
L:1/4
M:5/4
I:linebreak $
K:G
d | G F G A B | c B A B c | d e =f d3/2 c/ | B A G2 d | G F G A B |$ c B A B c | d g d3/2 c/ B | A A G2 G | d e =f2 d |[M:6/4] =f g f/e/ d z g |[M:5/4] =f e d3/2 c/ B |$ c d A2 d | G F G A B |
c B A B c | d g d3/2 c/ B | A A G2 |]

